material/.icons/material/wall-sconce-flat-variant.svg

<svg xmlns="http://www.w3.org/2000/svg" viewBox="0 0 24 24"><path d="M19 19v-6H5v6h14m-.27-8.32l1.77-1.77-1.41-1.41-1.77 1.77 1.41 1.41m-13.46 0l1.41-1.41L4.91 7.5 3.5 8.91l1.77 1.77M13 8V5h-2v3h2z"/></svg>

<?xml version="1.0" encoding="UTF-8"?><!DOCTYPE svg PUBLIC "-//W3C//DTD SVG 1.1//EN" "http://www.w3.org/Graphics/SVG/1.1/DTD/svg11.dtd"><svg xmlns="http://www.w3.org/2000/svg" xmlns:xlink="http://www.w3.org/1999/xlink" version="1.1" id="mdi-wall-sconce-flat-variant" width="24" height="24" viewBox="0 0 24 24"><path d="M19 19V13H5V19H19M18.73 10.68L20.5 8.91L19.09 7.5L17.32 9.27L18.73 10.68M5.27 10.68L6.68 9.27L4.91 7.5L3.5 8.91L5.27 10.68M13 8V5H11V8H13Z" /></svg>
